X: 57
T:Pincushion Polka
M:2/4
L:1/16
R:Polka
Q:300
K:C
E2|EFG2 GAG2|c2E2 G4|A2D2 F4|G2C2 E4|
EFG2 GAG2|c2E2 G4|A2D2 F2B,2|C2E2 C2:|
K:G
D2D2 c4|B2B2 G4|ABc2 D2F2|G2B2 D4|
D2D2 c4|B2B2 G4|ABc2 D2F2|A2G2 G2:|
K:C
EFG2 GAG2|c2E2 G4|A2D2 F4|G2C2 E4|
EFG2 GAG2|c2E2 G4|A2D2 F2B2|C2E2 C2:|
K:F
z2|C2F2 F2A2|BcBA GAB2|C2G2 G2AG|F2d2 c4|
C2F2 F2A2|BcBA GAB2|C2G2 G2AG|F2A2 F2:|
%  ABC2Win Version 2.1 1/19/2002
